X: 3405
T: Over the Water to Charlie (New Way)
P: Ower the Water
C:Old Song adapted
B:RSCDS 34-5
Z:Anselm Lingnau <anselm@strathspey.org>
R:Jig (8x32)
M:6/8
L:1/8
K:D
|:"D"D2 A AFA|"G"B/c/dF "A"E2 |"D"DFA "D7"AFA|"G"BAB "D"def|\
  "D"DFA AFA|"G"Bcd "D"AFD|
                           "Bm"[dB]fd "A"ecA|"G"B3 "D"d3:|\
"D"dfd "A"ecA|"Bm"d2 F "A"E2 "D"D|"Bm"dfd "A"ecA|"G"B3 "D"[d2f2] "A7"[Ag]|
"D"dfd "A"ecA|"Bm"d2 F "A"E2D|"D7"D2 A AFA|"G"B3 "D"d3|\
"D"dfd "A"ecA|"G"Bcd "A"AFD|
                            "Bm"dfd "A"ecA|"G"B3 "D"d2 f/g/|\
"D"agf "A"edc|"D"dcB "A"AFA|"D"DFA "D7"AFA|"G"BAB "D"[d3F3]|]
%%center Book34/3405-Over_the_Water_to_Charlie_New_Way-AL.abc

%%sep 1 1 500
%%sep 1 1 500

